images/glasses.svg

<?xml version="1.0" encoding="UTF-8"?>
<svg width="86px" height="30px" viewBox="0 0 86 30" version="1.1" xmlns="http://www.w3.org/2000/svg" xmlns:xlink="http://www.w3.org/1999/xlink">
    <title>C69BA572-E58B-4710-A587-A6AE781CBE57@1.00x</title>
    <g id="Symbols" stroke="none" stroke-width="1" fill="none" fill-rule="evenodd">
        <g id="footer-/-desktop" transform="translate(-469.000000, -64.000000)" fill="#E25641" fill-rule="nonzero">
            <g id="Group" transform="translate(469.000000, 64.000000)">
                <g id="Shape" transform="translate(0.000000, 0.000000)">
                    <path d="M5,12.5 C5,22.1495 12.9251667,30 22.6666667,30 C32.3161667,30 40.1666667,22.1495 40.1666667,12.5 C40.1666667,11.1215 41.2881667,10 42.6666667,10 C44.0451667,10 45.1666667,11.1215 45.1666667,12.5 C45.1666667,22.1495 53.0171667,30 62.6666667,30 C72.4081667,30 80.3333333,22.1495 80.3333333,12.5 L80.3333333,10 L85.3333333,10 L85.3333333,5 L79.9033333,5 C78.8713333,2.09016667 76.0925,0 72.8333333,0 L52.6666667,0 C49.2128333,0 46.2985,2.3475 45.431,5.53016667 C44.5748333,5.1895 43.6428333,5 42.6666667,5 C41.6905,5 40.7585,5.1895 39.9023333,5.53016667 C39.0348333,2.3475 36.1205,0 32.6666667,0 L12.5,0 C9.24083333,0 6.462,2.09016667 5.43,5 L0,5 L0,10 L5,10 L5,12.5 Z M50.1666667,7.5 C50.1666667,6.1215 51.2881667,5 52.6666667,5 L72.8333333,5 C73.5946667,5 74.2763333,5.343 74.7351667,5.8815 L75.3333333,10.946 L75.3333333,12.5 C75.3333333,19.3925 69.6511667,25 62.6666667,25 C55.7741667,25 50.1666667,19.3925 50.1666667,12.5 L50.1666667,7.5 Z M10,10.9458333 L10.5981667,5.8815 C11.057,5.343 11.7386667,5 12.5,5 L32.6666667,5 C34.0451667,5 35.1666667,6.1215 35.1666667,7.5 L35.1666667,12.5 C35.1666667,19.3925 29.5591667,25 22.6666667,25 C15.6821667,25 10,19.3925 10,12.5 L10,10.9458333 Z"></path>
                </g>
            </g>
        </g>
    </g>
</svg>

<svg width="86" height="30" xmlns="http://www.w3.org/2000/svg"><path d="M5 12.5C5 22.15 12.925 30 22.667 30c9.65 0 17.5-7.85 17.5-17.5 0-1.379 1.121-2.5 2.5-2.5 1.378 0 2.5 1.121 2.5 2.5 0 9.65 7.85 17.5 17.5 17.5 9.741 0 17.666-7.85 17.666-17.5V10h5V5h-5.43c-1.032-2.91-3.81-5-7.07-5H52.667c-3.454 0-6.369 2.348-7.236 5.53a7.46 7.46 0 0 0-5.529 0C39.035 2.347 36.12 0 32.667 0H12.5C9.24 0 6.462 2.09 5.43 5H0v5h5v2.5zm45.167-5c0-1.378 1.121-2.5 2.5-2.5h20.166c.762 0 1.443.343 1.902.881l.598 5.065V12.5c0 6.892-5.682 12.5-12.666 12.5-6.893 0-12.5-5.608-12.5-12.5v-5zM10 10.946l.598-5.064A2.493 2.493 0 0 1 12.5 5h20.167c1.378 0 2.5 1.122 2.5 2.5v5c0 6.892-5.608 12.5-12.5 12.5C15.682 25 10 19.392 10 12.5v-1.554z" fill="#E25641"/></svg>
